flaticon/web-design/analysis-1.svg

<svg xmlns="http://www.w3.org/2000/svg" width="32" height="32" viewBox="0 0 24 24">
    <path d="M 15.527344 5.078125 C 12.644531 2.195312 7.957031 2.195312 5.074219 5.078125 C 3.679688 6.472656 2.910156 8.328125 2.910156 10.304688 C 2.910156 12.277344 3.679688 14.132812 5.074219 15.527344 C 6.515625 16.96875 8.40625 17.6875 10.300781 17.6875 C 12.191406 17.6875 14.085938 16.96875 15.527344 15.527344 C 18.40625 12.648438 18.40625 7.957031 15.527344 5.078125 Z M 14.988281 14.992188 C 12.402344 17.578125 8.195312 17.578125 5.613281 14.992188 C 4.359375 13.738281 3.671875 12.074219 3.671875 10.304688 C 3.671875 8.53125 4.359375 6.867188 5.613281 5.613281 C 6.90625 4.320312 8.601562 3.675781 10.300781 3.675781 C 12 3.675781 13.695312 4.320312 14.988281 5.613281 C 17.574219 8.199219 17.574219 12.40625 14.988281 14.992188 Z M 14.988281 14.992188"/>
    <path d="M18.410156 6.917969C18.328125 6.722656 18.105469 6.632812 17.914062 6.710938 17.71875 6.792969 17.628906 7.015625 17.710938 7.207031 18.117188 8.1875 18.324219 9.226562 18.324219 10.304688 18.324219 10.511719 18.496094 10.683594 18.703125 10.683594 18.914062 10.683594 19.085938 10.511719 19.085938 10.304688 19.085938 9.125 18.859375 7.988281 18.410156 6.917969zM17.46875 5.222656C17.183594 4.824219 16.863281 4.441406 16.511719 4.089844 14.851562 2.433594 12.648438 1.519531 10.300781 1.519531 10.089844 1.519531 9.921875 1.6875 9.921875 1.898438 9.921875 2.109375 10.089844 2.277344 10.300781 2.277344 12.445312 2.277344 14.460938 3.113281 15.972656 4.628906 16.296875 4.949219 16.589844 5.296875 16.851562 5.664062 16.925781 5.765625 17.039062 5.824219 17.160156 5.824219 17.234375 5.824219 17.3125 5.800781 17.378906 5.753906 17.550781 5.628906 17.589844 5.394531 17.46875 5.222656zM17.46875 5.222656"/>
    <path d="M 23.886719 21.632812 L 21.023438 18.769531 C 20.875 18.621094 20.632812 18.621094 20.484375 18.769531 L 19.894531 19.359375 L 17.847656 17.3125 C 19.628906 15.402344 20.601562 12.929688 20.601562 10.304688 C 20.601562 7.550781 19.53125 4.964844 17.585938 3.019531 C 15.640625 1.070312 13.050781 0 10.300781 0 C 7.546875 0 4.960938 1.070312 3.015625 3.019531 C -1 7.035156 -1 13.570312 3.015625 17.589844 C 4.960938 19.535156 7.546875 20.605469 10.300781 20.605469 C 12.925781 20.605469 15.398438 19.628906 17.3125 17.851562 L 19.359375 19.898438 L 18.765625 20.488281 C 18.617188 20.636719 18.617188 20.875 18.765625 21.023438 L 21.632812 23.890625 C 21.707031 23.960938 21.800781 24 21.898438 24 C 21.996094 24 22.09375 23.960938 22.167969 23.890625 L 23.886719 22.171875 C 24.035156 22.023438 24.035156 21.78125 23.886719 21.632812 Z M 17.046875 17.050781 C 15.246094 18.855469 12.847656 19.847656 10.300781 19.847656 C 7.75 19.847656 5.355469 18.855469 3.550781 17.050781 C -0.167969 13.328125 -0.167969 7.277344 3.550781 3.554688 C 5.355469 1.753906 7.75 0.757812 10.300781 0.757812 C 12.847656 0.757812 15.246094 1.753906 17.046875 3.554688 C 18.851562 5.355469 19.84375 7.753906 19.84375 10.304688 C 19.84375 12.851562 18.851562 15.25 17.046875 17.050781 Z M 21.898438 23.082031 L 19.574219 20.757812 L 20.164062 20.167969 C 20.164062 20.167969 20.164062 20.164062 20.164062 20.164062 L 20.753906 19.574219 L 23.082031 21.902344 Z M 21.898438 23.082031"/>
    <path d="M 15.515625 12.351562 L 15.085938 12.351562 L 15.085938 6.457031 C 15.085938 6.246094 14.917969 6.074219 14.707031 6.074219 L 12.882812 6.074219 C 12.675781 6.074219 12.503906 6.246094 12.503906 6.457031 L 12.503906 12.351562 L 11.441406 12.351562 L 11.441406 8.277344 C 11.441406 8.066406 11.273438 7.898438 11.0625 7.898438 L 9.238281 7.898438 C 9.03125 7.898438 8.859375 8.066406 8.859375 8.277344 L 8.859375 12.351562 L 7.796875 12.351562 L 7.796875 7.671875 C 7.796875 7.460938 7.625 7.289062 7.417969 7.289062 L 5.59375 7.289062 C 5.382812 7.289062 5.214844 7.460938 5.214844 7.671875 L 5.214844 12.351562 L 4.785156 12.351562 C 4.574219 12.351562 4.40625 12.523438 4.40625 12.734375 C 4.40625 12.941406 4.574219 13.113281 4.785156 13.113281 L 15.515625 13.113281 C 15.726562 13.113281 15.898438 12.941406 15.898438 12.734375 C 15.898438 12.523438 15.726562 12.351562 15.515625 12.351562 Z M 7.039062 12.351562 L 5.972656 12.351562 L 5.972656 8.050781 L 7.039062 8.050781 Z M 10.683594 12.351562 L 9.621094 12.351562 L 9.621094 8.65625 L 10.683594 8.65625 Z M 14.328125 12.351562 L 13.265625 12.351562 L 13.265625 6.835938 L 14.328125 6.835938 Z M 14.328125 12.351562"/>
</svg>

<svg xmlns="http://www.w3.org/2000/svg" width="32" height="32" viewBox="0 0 24 24">
    <path d="M15.527 5.078a7.398 7.398 0 0 0-10.453 0 7.342 7.342 0 0 0-2.164 5.227 7.34 7.34 0 0 0 2.164 5.222 7.363 7.363 0 0 0 5.227 2.16 7.37 7.37 0 0 0 5.226-2.16c2.88-2.879 2.88-7.57 0-10.449zm-.539 9.914c-2.586 2.586-6.793 2.586-9.375 0a6.583 6.583 0 0 1-1.941-4.687c0-1.774.687-3.438 1.941-4.692a6.603 6.603 0 0 1 4.688-1.937c1.699 0 3.394.644 4.687 1.937a6.64 6.64 0 0 1 0 9.38zm0 0"/>
    <path d="M18.41 6.918a.382.382 0 0 0-.496-.207.377.377 0 0 0-.203.496c.406.98.613 2.02.613 3.098a.382.382 0 0 0 .762 0c0-1.18-.227-2.317-.676-3.387zm0 0M17.469 5.223a9.068 9.068 0 0 0-.957-1.133A8.735 8.735 0 0 0 10.3 1.52a.377.377 0 0 0-.38.378c0 .211.169.38.38.38a7.96 7.96 0 0 1 5.672 2.35c.324.321.617.669.879 1.036.074.102.187.16.308.16a.382.382 0 0 0 .309-.602zm0 0"/>
    <path d="M23.887 21.633l-2.864-2.863a.382.382 0 0 0-.539 0l-.59.59-2.046-2.047a10.206 10.206 0 0 0 2.754-7.008c0-2.754-1.07-5.34-3.016-7.285A10.226 10.226 0 0 0 10.3 0a10.22 10.22 0 0 0-7.285 3.02C-1 7.035-1 13.57 3.016 17.59a10.232 10.232 0 0 0 7.285 3.015 10.24 10.24 0 0 0 7.011-2.753l2.047 2.046-.593.59a.377.377 0 0 0 0 .535l2.867 2.868c.074.07.168.109.265.109.098 0 .196-.04.27-.11l1.719-1.718a.382.382 0 0 0 0-.54zm-6.84-4.582a9.47 9.47 0 0 1-6.746 2.797 9.479 9.479 0 0 1-6.75-2.797c-3.719-3.723-3.719-9.774 0-13.496A9.495 9.495 0 0 1 10.3.758c2.547 0 4.945.996 6.746 2.797a9.472 9.472 0 0 1 2.797 6.75 9.47 9.47 0 0 1-2.797 6.746zm4.851 6.031l-2.324-2.324.59-.59v-.004l.59-.59 2.328 2.328zm0 0"/>
    <path d="M15.516 12.352h-.43V6.457a.38.38 0 0 0-.379-.383h-1.824a.383.383 0 0 0-.38.383v5.895h-1.062V8.277a.377.377 0 0 0-.379-.379H9.239a.38.38 0 0 0-.379.38v4.074H7.797v-4.68a.383.383 0 0 0-.379-.383H5.594a.38.38 0 0 0-.38.383v4.68h-.429a.38.38 0 0 0 0 .761h10.73c.212 0 .383-.172.383-.379a.383.383 0 0 0-.382-.382zm-8.477 0H5.973V8.05h1.066zm3.645 0H9.62V8.656h1.063zm3.644 0h-1.062V6.836h1.062zm0 0"/>
</svg>
